X:1
T:Title
L:1/8
M:6/8
I:linebreak $
K:D
V:1 treble nm="Voice"
V:1
"D" dfd cfc |"G" B2 B B2 A |"D" dfd cfc |"G" B2 B B2 A |"A" ege"G" dgd |"A" c2 c c2 B | A2 A ABc |1 %7
"D" dcB AFA :|2"D" d3 A2 G |:"D" F2 D FAd | f3- f2 d |"A" e2 d c2 d |"G" g3- g2 f |"A" e2 e e2 d | %14
 c2 c c2 B | A2 A ABc |1"D" dcB A2 G :|2"D" dcB AFA |] %18
